icons/Document/file-cloud-line.svg

<svg viewBox="0 0 24 24" xmlns="http://www.w3.org/2000/svg"><path d="M14.9968 2L21 8L21.0012 12.2606C20.4221 11.7806 19.7434 11.4178 19.0008 11.2074L19 9H14V4H5V20L10.0591 20.0009C10.1761 20.7365 10.4622 21.4172 10.8771 22.0006L3.9934 22C3.48412 22 3.06409 21.6171 3.00669 21.1239L3 21.0082V2.9918C3 2.49363 3.38689 2.06546 3.88533 2.00683L4.00221 2H14.9968ZM17.5 13C19.433 13 21 14.567 21 16.5L20.9985 16.6033C22.1531 16.9285 23 17.9903 23 19.25C23 20.7125 21.8583 21.9084 20.4175 21.995L20.25 22H14.75L14.5825 21.995C13.1417 21.9084 12 20.7125 12 19.25C12 17.99 12.8474 16.9279 14.0034 16.6025L14 16.5C14 14.567 15.567 13 17.5 13ZM17.5 15C16.769 15 16.1602 15.5229 16.027 16.215L16.0069 16.3555L16 16.5V18.12L14.5559 18.5256C14.1558 18.6328 13.9183 19.044 14.0256 19.4441C14.105 19.7405 14.3512 19.9476 14.6362 19.9915L14.7446 20.0002H20.2554C20.5846 19.998 20.8851 19.7775 20.9744 19.4441C21.0817 19.044 20.8442 18.6328 20.4441 18.5256L19.4322 18.2432L19 18.12V16.5L18.9931 16.3555C18.9204 15.5949 18.2797 15 17.5 15Z"/></svg>

<svg xmlns="http://www.w3.org/2000/svg" viewBox="0 0 24 24">
    <g>
        <path fill="none" d="M0 0h24v24H0z"/>
        <path fill-rule="nonzero" d="M14.997 2L21 8l.001 4.26a5.471 5.471 0 0 0-2-1.053L19 9h-5V4H5v16h5.06a4.73 4.73 0 0 0 .817 2H3.993a.993.993 0 0 1-.986-.876L3 21.008V2.992c0-.498.387-.927.885-.985L4.002 2h10.995zM17.5 13a3.5 3.5 0 0 1 3.5 3.5l-.001.103a2.75 2.75 0 0 1-.581 5.392L20.25 22h-5.5l-.168-.005a2.75 2.75 0 0 1-.579-5.392L14 16.5a3.5 3.5 0 0 1 3.5-3.5zm0 2a1.5 1.5 0 0 0-1.473 1.215l-.02.14L16 16.5v1.62l-1.444.406a.75.75 0 0 0 .08 1.466l.109.008h5.51a.75.75 0 0 0 .19-1.474l-1.013-.283L19 18.12V16.5l-.007-.144A1.5 1.5 0 0 0 17.5 15z"/>
    </g>
</svg>
